!!!OTL: WEINE NUR NICHT
!!!ARE: Europa, Mitteleuropa, Deutschland, Gross - Gerau
!!!SCT: E0616
!!!YEM: Copyright 1995, estate of Helmut Schaffrath.
**kern
*ICvox
*Ivox
*M3/8
*k[]
*C:
=1
{4g
8e
=2
4cc
8g
=3
8g
8g
8f
=4
4e
8r}
=5
{8d
8e
8f#
=6
8g
8a
8b
=7
8dd
8cc
8a
=8
4g
8r}
=9
{8g
8a
8b
=10
4cc
8e
=11
8g
8g
8f
=12
8f
8e}
{8d
=13
8d
8e
8f#
=14
8g
8b
8b
=15
8dd
8cc
8a
=16
4g}
{16g
16g
=17
16ee
16ee
16ee
16ee
16dd
16dd
=18
16cc
16cc
16cc
16cc}
{8e
=19
8.g
16f
8d
=20
8a
8g}
{16g
16g
=21
16ee
16ee
16ee
16ee
16dd
16dd
=22
16cc
16cc
16cc
16cc}
{8e
=23
8.g
16f
8d
=24
4c
8r}
==
!!!AGN: Liebes - Lied
!!!ONB: ESAC (Essen Associative Code) Database: ERK2
!!!AMT: simple triple
!!!AIN: vox
!!!EED: Helmut Schaffrath
!!!EEV: 1.0
*-
